Point/img/third-vector.svg

<svg width="1015" height="775" fill="none" xmlns="http://www.w3.org/2000/svg"><path fill-rule="evenodd" clip-rule="evenodd" d="M928.333 308.689c34.017 69.948 92.067 155.984 29.57 222.223-64.684 68.551-204.402 34.499-304.396 69.036-81.518 28.155-133.897 111.143-219.834 112.026-86.195.887-130.481-67.863-193.104-107.779C174.343 561.982 62.539 540.477 57.184 472c-5.407-69.134 111.995-114.258 159.115-178.115 43.795-59.349 29.11-145.055 105.695-180.749 76.482-35.645 163.343 6.946 246.276 16.709 74.257 8.742 151.818 7.066 212.744 37.328 68.146 33.848 118.751 82.77 147.319 141.516z" fill="#FFEEF2"/></svg>

<svg width="1015" height="775" viewBox="0 0 1015 775" fill="none" xmlns="http://www.w3.org/2000/svg">
<path fill-rule="evenodd" clip-rule="evenodd" d="M928.333 308.689C962.35 378.637 1020.4 464.673 957.903 530.912C893.219 599.463 753.501 565.411 653.507 599.948C571.989 628.103 519.61 711.091 433.673 711.974C347.478 712.861 303.192 644.111 240.569 604.195C174.343 561.982 62.5392 540.477 57.1835 472C51.7765 402.866 169.179 357.742 216.299 293.885C260.094 234.536 245.409 148.83 321.994 113.136C398.476 77.4908 485.337 120.082 568.27 129.845C642.527 138.587 720.088 136.911 781.014 167.173C849.16 201.021 899.765 249.943 928.333 308.689Z" fill="#FFEEF2"/>
</svg>
